!!!COA:	Josquin des Prez
!!!CDT:	~1450-1521/08/27
!!!OPR:	Missa D'ung aultre amer
!!!ONM:	1
!!!OTL:	Kyrie
!!!AGN:	Mass; Kyrie; Missa Brevis
!!!SCT:	NJE 7.3
!!!SCA:	New Josquin Edition 7.3
!!!voices:	4
!!!voices-OPR:	4
**kern	**kern	**kern	**kern
*staff4	*staff3	*staff2	*staff1
*Ivox	*Ivox	*Ivox	*Ivox
*I"Bassus	*I"Tenor	*I"Altus	*I"Superius
*I'B	*I'T	*I'A	*I'S
*clefF4	*clefGv2	*clefGv2	*clefG2
*>[A,B,C]	*>[A,B,C]	*>[A,B,C]	*>[A,B,C]
*>A	*>A	*>A	*>A
*k[b-]	*k[b-]	*k[b-]	*k[b-]
*M2/1	*M2/1	*M2/1	*M2/1
*met(C|)	*met(C|)	*met(C|)	*met(C|)
=1-	=1-	=1-	=1-
!!section: Kyrie I
!!!OMD: Kyrie I
0r	1.G	0r	0g
.	2E/	.	.
=2	=2	=2	=2
0r	1F	0r	1a
.	1G	.	1g
=3	=3	=3	=3
0r	0B-	0r	1.dd
.	.	.	4cc\
.	.	.	4b-\
=4	=4	=4	=4
0r	0c	0r	2a/
.	.	.	2.cc\
.	.	.	4b-\
.	.	.	4a/
.	.	.	4g/
=5	=5	=5	=5
0r	1.d	1.D	2.f/
.	.	.	4g/
.	.	.	2b-\
.	2c\	4E/	[2a/
.	.	4F/	.
=6	=6	=6	=6
0r	1B-	2G/	4a/]
.	.	.	4g/
.	.	4A/	1g
.	.	4B-\	.
.	1A	2.c\	.
.	.	.	2f#i/
.	.	4d\	.
=7	=7	=7	=7
[0GG	1.G	2e-i\	0g
.	.	2.d\	.
.	.	4c\	.
.	4F/	[2B-\	.
.	4E/	.	.
=8	=8	=8	=8
1GG]	0D	2B-\]	0r
.	.	4A/	.
.	.	4G/	.
[1D	.	[1F	.
=9	=9	=9	=9
2D\]	1B-	2F/]	0r
2BB-/	.	2D/	.
2C/	1A	2E/	.
2D\	.	2F/	.
=10	=10	=10	=10
2.GG/	1B-	2.G/	0r
4AA/	.	4F/	.
2BB-/	[1G	2D/	.
[2C/	.	[2E-i/	.
=11	=11	=11	=11
4C/]	2G/]	4E-/]	1r
4BB-/	.	4D/	.
4AA/	2F#i/	4C/	.
4GG/	.	4BB-/	.
1AA	2F#i/	1C	1c
.	2E/	.	.
=12	=12	=12	=12
2GG/	1G	1D	1B-
2BB-/	.	.	.
[1AA	[1C	1E	[1c
=13	=13	=13	=13
1AA]	1C]	1F	2c/]
.	.	.	4B-/
.	.	.	4A/
1GG	1G	2r	2.B-/
.	.	2G/	.
.	.	.	4c/
=14	=14	=14	=14
1r	2F/	2A/	2A/
.	1G	1B-	2G/
1G	.	.	2B-/
.	4F/	4A/	2c/
.	4E/	4G/	.
=15	=15	=15	=15
2A\	2F/	1F	1d
2B-\	2D/	.	.
1c	1C	2r	[1e
.	.	[2G/	.
=16	=16	=16	=16
1B-	0G	4G/]	2e/]
.	.	4A/	.
.	.	4B-\	2d/
.	.	4c\	.
2G\	.	2d\	[1b-
[2B-\	.	2G/	.
=17	=17	=17	=17
2B-\]	1D	2d\	1b-]
4A\	.	2.f\	.
4G\	.	.	.
1F	1F	.	1a
.	.	4e\	.
.	.	[2d\	.
=18	=18	=18	=18
2G\	0E	2d\]	2g/
2C/	.	4c\	1g
.	.	4B-\	.
1G	.	2c\	.
.	.	4d\	4f/
.	.	4c\	4e/
=19	=19	=19	=19
2A\	[0Dl	[0dl	[0fl
1B-	.	.	.
4A\	.	.	.
4G\	.	.	.
=20	=20	=20	=20
0Al	0D]	0d]	0f]
!!LO:LB:i:g=z
=21||	=21||	=21||	=21||
*>B	*>B	*>B	*>B
*k[b-]	*k[b-]	*k[b-]	*k[b-]
*M2/1	*M2/1	*M2/1	*M2/1
*met(C|)	*met(C|)	*met(C|)	*met(C|)
!!section: Christe
!!!OMD: Christe
1.B-	0B-	1G	0r
.	.	[1g	.
4A\	.	.	.
4G\	.	.	.
=22	=22	=22	=22
1A	1c	2g\]	0r
.	.	4f\	.
.	.	4e\	.
1A	1c	1f	.
=23	=23	=23	=23
0G	0d	1B-	0b-
.	.	2r	.
.	.	[2B-\	.
=24	=24	=24	=24
1r	0e-i	2B-\]	1cc
.	.	4A/	.
.	.	4G/	.
1C	.	1A	1cc
=25	=25	=25	=25
2.BB-/	1d	1B-	1.dd
4C/	.	.	.
2.D\	[1f	1F	.
.	.	.	4cc\
4E\	.	.	4b-\
=26	=26	=26	=26
2F\	1f]	0r	2a/
1BB-	.	.	2.b-\
.	[1B-	.	.
.	.	.	4a/
[2E-i\	.	.	[2g/
=27	=27	=27	=27
4E-\]	1B-]	1r	4g/]
4D\	.	.	4f/
4C/	.	.	4e/
4BB-/	.	.	4d/
1C	1A	1c	1e
=28	=28	=28	=28
1.BB-	0B-	2d\	1.d
.	.	1B-	.
2BB-/	.	4A/	[2f/
.	.	4G/	.
=29	=29	=29	=29
1BB-	1f	1F	2f/]
.	.	.	4e/
.	.	.	4d/
1r	1e	1r	1c
=30	=30	=30	=30
1.BB-	1f	1.d	1B-
.	[1d	.	1f
2BB-/	.	[2f\	.
=31	=31	=31	=31
1BB-	1d]	2f\]	2r
.	.	4e\	2f/
.	.	4d\	.
1r	1e	1c	2g/
.	.	.	2a/
=32	=32	=32	=32
2.B-\	1f	2r	1.b-
.	.	2.B-\	.
4A\	.	.	.
1G	1B-	.	.
.	.	4c\	.
.	.	4d\	4a/
.	.	4e\	4g/
=33	=33	=33	=33
[0Fl	[0cl	2f\	[0al
.	.	2F/	.
.	.	2.f\	.
.	.	4e\	.
=34	=34	=34	=34
0F]	0c]	0fl	0a]
!!LO:LB:i:g=z
=35||	=35||	=35||	=35||
*>C	*>C	*>C	*>C
*k[b-]	*k[b-]	*k[b-]	*k[b-]
*M2/1	*M2/1	*M2/1	*M2/1
*met(C|)	*met(C|)	*met(C|)	*met(C|)
!!section: Kyrie II
!!!OMD: Kyrie II
0r	1.B-	1.d	0r
.	2A/	4c\	.
.	.	4d\	.
=36	=36	=36	=36
0r	1G	4e-i\	0r
.	.	4d\	.
.	.	4c\	.
.	.	4B-\	.
.	1F	1A	.
=37	=37	=37	=37
1.GG	0G	1G	1.b-
.	.	1d	.
[2G\	.	.	4a/
.	.	.	4g/
=38	=38	=38	=38
2G\]	0D	1r	1a
4F#i\	.	.	.
4E\	.	.	.
1F#i	.	1d	1a
=39	=39	=39	=39
1G	0E-i	1B-	1.g
1C	.	1e-i	.
.	.	.	2cc\
=40	=40	=40	=40
0D	0F	2d\	2b-\
.	.	1c	1a
.	.	2Bni\	4g/
.	.	.	4f/
=41	=41	=41	=41
0C	0G	2c\	1e
.	.	2.C/	.
.	.	.	2r
.	.	4D/	.
.	.	2E/	2e/
=42	=42	=42	=42
2.BB-/	1B-	2F/	2d/
.	.	2D/	2.f/
4C/	.	.	.
4D\	1A	2.F/	.
4E\	.	.	4g/
[2F\	.	.	[2a/
.	.	4G/	.
=43	=43	=43	=43
2F\]	0c	2.A/	4a/]
.	.	.	4b-\
4E\	.	.	2.cc\
4D\	.	4B-\	.
1C	.	2.c\	.
.	.	.	4b-\
.	.	.	4a/
.	.	8d\L	4g/
.	.	8e\J	.
=44	=44	=44	=44
2BB-/	1d	2.f\	2b-\
2F\	.	.	2a/
.	.	4e\	.
2G\	2B-\	2d\	2b-\
2A\	2c\	2c\	2a/
=45	=45	=45	=45
2.D\	2.d\	1.f	2b-\
.	.	.	2.a/
4E\	4c\	.	.
2F\	2A/	.	.
.	.	.	4g/
4G\	[2G/	2e\	[2b-\
4A\	.	.	.
=46	=46	=46	=46
2B-\	2G/]	1d	4b-\]
.	.	.	4a/
2BB-/	2B-\	.	2.g/
2C/	1A	2r	.
.	.	.	4f#i/
2D\	.	[2d\	4f#i/
.	.	.	4e/
=47	=47	=47	=47
[0GGl	[0Gl	4d\]	[0gl
.	.	4c\	.
.	.	2.B-\	.
.	.	4A/	.
.	.	[2G/	.
=48	=48	=48	=48
0GG_	0G_	4G/]	0g_
.	.	4F/	.
.	.	4E-i/	.
.	.	4D/	.
.	.	1E-i	.
=49	=49	=49	=49
0GG]	0G]	0Dl	0g]
==	==	==	==
*-	*-	*-	*-
!!!RDF**kern: l=long note in original notation
!!!RDF**kern: i=editorial accidental
!!!RDF**kern: V=start of tuplet marker
!!!RDF**kern: Z=end of tuplet marker
!!!ENC:	Jesse Rodin; Victoria Chang 2012/02/26
!!!END:	2012/02/26/
!!!EED:	Jesse Rodin
!!!EEV:	2012/03/22/
!!attribution-level@Jos: 3 (tricky)
!!!ONB:	Translated from MusicXML and edited on 2012/03/22/ by Craig Sapp
!!muse2ps: T^@{OPR}^u^@{ONM}{. }@{OTL}^C^@{COA}?\n@{SCT}^i2I100v85,85,85,150c100Q16
